!!!COM: Bach, Johann Sebastian
!!!CDT: 1685/3//-1750/7/28/
!!!OTL@@DE: O Welt, sieh hier dein Leben
!!!AGN: 4-Part Chorale
!!!SCT: BH 366
!!!SCT: BWV 394
!!!YEC: Copyright 1994, David Huron
!!!YEC: Changes/Additions 2001 by Craig Stuart Sapp
!!!YEN: United States of America
!!!SMA: 371 Bach Chorales, edited by Ludwig Erk, C.F. Peters
!!!PDT: 1850, 1865
!!!ONB: Harmony and Root analysis done manually
**kern	**kern	**kern	**kern	**root	**harm
!bass	!tenor	!alto	!soprno	!	!
*Iorgan	*Iorgan	*Iorgan	*Iorgan	*Iorgan	*
*M4/4	*M4/4	*M4/4	*M4/4	*M4/4	*M4/4
*met(C)	*met(C)	*met(C)	*met(C)	*met(C)	*met(C)
*MM60	*MM60	*MM60	*MM60	*MM60	*MM60
*k[f#c#g#]	*k[f#c#g#]	*k[f#c#g#]	*k[f#c#g#]	*k[f#c#g#]	*k[f#c#g#]
*A:	*A:	*A:	*A:	*A:	*A:
4A	4e	8a	8cc#	4AA	I
.	.	8g#	8b	.	.
=1	=1	=1	=1	=1	=1
8d	8f#	4.f#	4a	4DD	IV
8c#	8e	.	.	.	.
4B	4d	.	4b	4BB	ii
.	.	8g#	.	.	.
4A	4e	4.a	8cc#	4AA	I
.	.	.	8dd	.	.
4C#	4A	.	4ee	4AA	Ib
.	.	8e	.	.	.
=2	=2	=2	=2	=2	=2
4BB	4A	4f#	2dd	4BB	ii7
4E	4G#	4e	.	4EE	V7
4AA;	4A;	4e;	4cc#;	4AA;	I;
8A	4e	4a	8cc#	4AA	I
8B	.	.	8dd	.	.
=3	=3	=3	=3	=3	=3
4c#	4e	8a	4ee	4AA	Ib
.	.	8g#	.	.	.
8C#	4e	8a	4ee	4AA	Ib
8D	.	8b	.	.	.
4E	8e	8g#	4b	4EE	V
.	8d	8f#	.	.	.
8A	4c#	4e	8cc#	4AA	I
8G#	.	.	8b	.	.
=4	=4	=4	=4	=4	=4
4F#	4c#	4e	2a	4FF#	vi7
4BB	4B	4d#	.	4BB	V7/V
4E;	4B;	4e;	4g#;	4EE;	V;
8E	4G#	4B	4e	4EE	V
8D	.	.	.	.	.
=5	=5	=5	=5	=5	=5
8C#	4A	8e	4a	8AA	Ib
8D	.	8f#	.	8DD	IV
8C#	4d	4g#	4b	4GG#	viioc
8BB	.	.	.	.	.
4AA	8e	8a	8cc#	8AA	I
.	8d	8g#	8b	8GG#	viioc
8A	8e	8a	8cc#	8AA	I
8D	8f#	8b	8dd	8BB	iib
=6	=6	=6	=6	=6	=6
2E;	2e;	2g#;	2b;	2EE;	V;
4r	4r	4r	4r	4r	r
4C#	4e#	4g#	8cc#	4CC#	V/vi
.	.	.	8b	.	.
!!linebreak: 2
=7	=7	=7	=7	=7	=7
4F#	8c#	4f#	4a	4FF#	vi
.	8d	.	.	.	.
4G#	8c#	4e	4b	4EE	Vb
.	8B	.	.	.	.
8A	4A	8e	8cc#	4AA	I
8B	.	8d	8dd	.	.
8A	4A	4c#	4ee	4AA	I
8G#	.	.	.	.	.
=8	=8	=8	=8	=8	=8
4F#	8A	8c#	2dd	4DD	IVb
.	4f#	16B	.	.	.
.	.	16A	.	.	.
4G#	.	4B	.	4EE	V7b
.	8e	.	.	.	.
4A;	4e;	4A;	4cc#;	4AA;	I;
4F#	4f#	4a	8cc#	4FF#	vi
.	.	.	8dd	.	.
=9	=9	=9	=9	=9	=9
8G#	4e	8b	4ee	8EE	Vb
8A	.	8cc#	.	8AA	I
8G#	4B	8b	4ee	4EE	Vb
8F#	.	8a	.	.	.
8E	8B	8g#	4b	4EE	V
8F#	8A	8f#	.	.	.
8E	8G#	4g#	8cc#	8CC#	iiib
8D#	8F#	.	8b	8GG#	v7c/iii
=10	=10	=10	=10	=10	=10
4C#	8E	8g#	2a	8CC#	iii7b
.	4c#	16f#	.	8FF#	vic
.	.	16e	.	.	.
4D#	.	4f#	.	4DD#	viio7/V
.	8B	.	.	.	.
4E;	4B;	4e;	4g#;	4EE;	V;
4C#	8c#	8e	4e	4CC#	iii
.	8B	8d	.	.	.
=11	=11	=11	=11	=11	=11
4F#	4A	8c#	4a	4FF#	vi
.	.	8d	.	.	.
8E	8G#	8c#	4b	8CC#	iii7b
8D	8F#	8B	.	8BB	iib
8C#	4.E	4A	8cc#	4AA	Ib
8BB	.	.	8dd	.	.
8C#	.	4a	8ee	8AA	Ib
8D	8F#	.	8dd	8DD	IV
=12	=12	=12	=12	=12	=12
8E	8G#	8e	4cc#	8CC#	iiib
8D	4A	8f#	.	8DD	IV7
4E	.	8B	4b	4EE	V
.	8G#	8e	.	.	.
4AA;	4E;	4c#;	4a;	4AA;	I;
==	==	==	==	==	==
*-	*-	*-	*-	*-	*-
!!chor2scor: -l 2 -o %b.pmx
